images_sukapura_svg/cmd/lc_charfontname.svg

<svg viewBox="0 0 24 24" xmlns="http://www.w3.org/2000/svg"><path d="m15.864051 17.437673h-7.8788835l-1.6034219 4.699685h-3.4003601l7.3950925-20.125709h3.179198l7.312157 20.125709h-3.414183zm-6.9113014-2.805988h5.9575414l-2.916569-8.5976587h-.08294z" fill="#4b4b4f" transform="scale(1.0062435 .99379521)"/></svg>

<?xml version="1.0" encoding="UTF-8" standalone="no"?>
<svg
   xmlns:dc="http://purl.org/dc/elements/1.1/"
   xmlns:cc="http://creativecommons.org/ns#"
   xmlns:rdf="http://www.w3.org/1999/02/22-rdf-syntax-ns#"
   xmlns:svg="http://www.w3.org/2000/svg"
   xmlns="http://www.w3.org/2000/svg"
   xmlns:sodipodi="http://sodipodi.sourceforge.net/DTD/sodipodi-0.dtd"
   xmlns:inkscape="http://www.inkscape.org/namespaces/inkscape"
   viewBox="0 0 24 24"
   version="1.1"
   id="svg4"
   sodipodi:docname="lc_charfontname.svg"
   inkscape:version="0.92.3 (2405546, 2018-03-11)">
  <metadata
     id="metadata10">
    <rdf:RDF>
      <cc:Work
         rdf:about="">
        <dc:format>image/svg+xml</dc:format>
        <dc:type
           rdf:resource="http://purl.org/dc/dcmitype/StillImage" />
        <dc:title></dc:title>
      </cc:Work>
    </rdf:RDF>
  </metadata>
  <defs
     id="defs8" />
  <sodipodi:namedview
     pagecolor="#ffffff"
     bordercolor="#666666"
     borderopacity="1"
     objecttolerance="10"
     gridtolerance="10"
     guidetolerance="10"
     inkscape:pageopacity="0"
     inkscape:pageshadow="2"
     inkscape:window-width="1366"
     inkscape:window-height="716"
     id="namedview6"
     showgrid="true"
     inkscape:zoom="16"
     inkscape:cx="10.015087"
     inkscape:cy="9.4061812"
     inkscape:window-x="-8"
     inkscape:window-y="-8"
     inkscape:window-maximized="1"
     inkscape:current-layer="svg4">
    <inkscape:grid
       type="xygrid"
       id="grid817" />
  </sodipodi:namedview>
  <g
     aria-label="A"
     transform="scale(1.0062435,0.99379521)"
     style="font-style:normal;font-weight:normal;font-size:28.30868912px;line-height:1.25;font-family:sans-serif;letter-spacing:0px;word-spacing:0px;fill:#4b4b4f;fill-opacity:1;stroke:none;stroke-width:0.70771724"
     id="text821">
    <path
       d="M 15.864051,17.437673 H 7.9851675 L 6.3817456,22.137358 H 2.9813855 L 10.376478,2.011649 h 3.179198 l 7.312157,20.125709 H 17.45365 Z M 8.9527496,14.631685 H 14.910291 L 11.993722,6.0340263 h -0.08294 z"
       style="font-style:normal;font-variant:normal;font-weight:500;font-stretch:normal;font-family:Roboto;-inkscape-font-specification:'Roboto Medium';stroke-width:0.70771724;fill:#4b4b4f;fill-opacity:1"
       id="path823" />
  </g>
</svg>
